X:63
T:Lous Cossaires E Lo Postouro
M:2/4
L:1/8
N:Anime
N:La Bourre 4th edition 1929, page 67
Z:Steve Mansfield www.lesession.co.uk May 2012
K:Bb
z F B B | c2 f2 ||[M:3/4] (ed) c d B B |
[M:2/4] c2 f2 ||[M:3/4] (ed) !fermata! c d e d | c2 B2 c B/ A/ |
[M:2/4] B c e d | c2 F2 | B4 |]

